X:119
T:Teddy O'Neill's                                                                                   
D:Jackie Daly, "Many's a Wild Night", track 9(c)                                                    
M:6/8                                                                                               
L:1/8                                                                                               
R:jig                                                                                               
K:D                                                                                                 
de |: f2 f fef |gBe dcB | Add dcd | faf eAe |                                                       
f2 f fef |gBe dcB | Adf agf |1 eBc d de :|2 eBc d cd ||                                             
|: e2 e edc |def gec |Add dcd | faf eAe |                                                           
f2 f fef |gBe dcB |Adf agf |1 eBc d cd :|2 eBc d de |>|
